X: 22042
T: Holyrood House
R: jig
B: RSCDS 22-4(I)
Z: John Chambers <jc:trillian.mit.edu>
M: 6/8
L: 1/8
%--------------------
K: G
B \
| "G"ded dBG | "D7"c2d "G"BAG |1 DGG "A7"GFG | "D7"ABA FED :|2 "G"DGG "D7"AGA | "G"BGG G2 :|
|: B \
| "G"dBG G2g | "C"ecc c2d | "A7"e^cA Aag | "D"fdd "D7"def \
| "G"gfe dcB | "C"edc "Am"BAG | "G"DGG "D7"AGA | "G"BGG G2 :|
%%center Book22/22041-Holyrood_House-3.abc

%%sep 1 1 500
%%sep 1 1 500
